X:381
T: IN DER STADT HAGENAU GENANNT
N: E0215
O: Europa, Mitteleuropa, Deutschland, Niederrhein; Elsass
R: erzaehlendes Volks - Lied, Mahn -, Moral - Lied, Strafe
M: 3/4
L: 1/8
K: G
GBc | d3edc | B2z
ABc | d3edc | B2z
BdB | A3BcB | A2z
ddd | d3BcA | G2z

@@@ Tune index: 4031
